X:1
T:Leapfrog
C:Traditional
M:4/4
L:1/4
Q:1/4=120
K:G
D | G3/2G/2 GA | G2 DD | EF GA | G2 GG | G3/2G/2 GA | G2 DD | EF GA | G2 GG |
G3/2G/2 GB | c2 dd | ef g2 | f2 d2 |]
